static/icons/c++.svg

<?xml version="1.0" encoding="UTF-8" standalone="no"?>
<svg
   viewBox="0 0 160 160"
   width="160"
   height="160"
   fill-rule="evenodd"
   clip-rule="evenodd"
   version="1.1"
   id="svg4474"
   sodipodi:docname="c++.svg"
   inkscape:version="1.2 (dc2aedaf03, 2022-05-15)"
   xmlns:inkscape="http://www.inkscape.org/namespaces/inkscape"
   xmlns:sodipodi="http://sodipodi.sourceforge.net/DTD/sodipodi-0.dtd"
   xmlns="http://www.w3.org/2000/svg"
   xmlns:svg="http://www.w3.org/2000/svg">
  <defs
     id="defs4478" />
  <sodipodi:namedview
     id="namedview4476"
     pagecolor="#505050"
     bordercolor="#eeeeee"
     borderopacity="1"
     inkscape:showpageshadow="0"
     inkscape:pageopacity="0"
     inkscape:pagecheckerboard="0"
     inkscape:deskcolor="#505050"
     showgrid="false"
     inkscape:zoom="10.96875"
     inkscape:cx="35.920228"
     inkscape:cy="40.706553"
     inkscape:window-width="1399"
     inkscape:window-height="1416"
     inkscape:window-x="10"
     inkscape:window-y="10"
     inkscape:window-maximized="1"
     inkscape:current-layer="svg4474" />
  <g
     id="g5637"
     transform="matrix(3.8095209,0,0,3.8095209,-11.428671,-11.427489)">
    <path
       fill="#00549d"
       fill-rule="evenodd"
       d="m 22.903,3.286 c 0.679,-0.381 1.515,-0.381 2.193,0 3.355,1.883 13.451,7.551 16.807,9.434 0.679,0.38 1.097,1.084 1.097,1.846 0,3.766 0,15.101 0,18.867 0,0.762 -0.418,1.466 -1.097,1.847 -3.355,1.883 -13.451,7.551 -16.807,9.434 -0.679,0.381 -1.515,0.381 -2.193,0 C 19.548,42.831 9.452,37.163 6.096,35.28 5.418,34.899 5,34.196 5,33.434 5,29.668 5,18.333 5,14.567 5,13.805 5.418,13.101 6.097,12.72 9.451,10.837 19.549,5.169 22.903,3.286 Z"
       clip-rule="evenodd"
       id="path4462"
       style="fill:#0086d4;fill-opacity:1" />
    <path
       fill="#0086d4"
       fill-rule="evenodd"
       d="M 5.304,34.404 C 5.038,34.048 5,33.71 5,33.255 5,29.511 5,18.241 5,14.496 5,13.738 5.417,13.038 6.094,12.66 9.437,10.788 19.499,5.153 22.842,3.28 c 0.677,-0.379 1.594,-0.371 2.271,0.008 3.343,1.872 13.371,7.459 16.714,9.331 0.27,0.152 0.476,0.335 0.66,0.576 z"
       clip-rule="evenodd"
       id="path4464" />
    <path
       fill="#ffffff"
       fill-rule="evenodd"
       d="m 24,10 c 7.727,0 14,6.273 14,14 0,7.727 -6.273,14 -14,14 -7.727,0 -14,-6.273 -14,-14 0,-7.727 6.273,-14 14,-14 z m 0,7 c 3.863,0 7,3.136 7,7 0,3.863 -3.137,7 -7,7 -3.863,0 -7,-3.137 -7,-7 0,-3.864 3.136,-7 7,-7 z"
       clip-rule="evenodd"
       id="path4466" />
    <path
       fill="#0075c0"
       fill-rule="evenodd"
       d="m 42.485,13.205 c 0.516,0.483 0.506,1.211 0.506,1.784 0,3.795 -0.032,14.589 0.009,18.384 0.004,0.396 -0.127,0.813 -0.323,1.127 L 23.593,24 Z"
       clip-rule="evenodd"
       id="path4468"
       style="fill:#0086d4;fill-opacity:1" />
    <path
       fill="#fff"
       fill-rule="evenodd"
       d="m 31,21 h 2 v 6 h -2 z m 7,0 h 2 v 6 h -2 z"
       clip-rule="evenodd"
       id="path4470"
       style="fill:#ffffff;fill-opacity:1" />
    <path
       fill="#ffffff"
       fill-rule="evenodd"
       d="m 29,23 h 6 v 2 h -6 z m 7,0 h 6 v 2 h -6 z"
       clip-rule="evenodd"
       id="path4472" />
  </g>
</svg>

<svg xmlns="http://www.w3.org/2000/svg"  viewBox="0 0 48 48" width="48px" height="48px" fill-rule="evenodd" clip-rule="evenodd"><path fill="#00549d" fill-rule="evenodd" d="M22.903,3.286c0.679-0.381,1.515-0.381,2.193,0 c3.355,1.883,13.451,7.551,16.807,9.434C42.582,13.1,43,13.804,43,14.566c0,3.766,0,15.101,0,18.867 c0,0.762-0.418,1.466-1.097,1.847c-3.355,1.883-13.451,7.551-16.807,9.434c-0.679,0.381-1.515,0.381-2.193,0 c-3.355-1.883-13.451-7.551-16.807-9.434C5.418,34.899,5,34.196,5,33.434c0-3.766,0-15.101,0-18.867 c0-0.762,0.418-1.466,1.097-1.847C9.451,10.837,19.549,5.169,22.903,3.286z" clip-rule="evenodd"/><path fill="#0086d4" fill-rule="evenodd" d="M5.304,34.404C5.038,34.048,5,33.71,5,33.255 c0-3.744,0-15.014,0-18.759c0-0.758,0.417-1.458,1.094-1.836c3.343-1.872,13.405-7.507,16.748-9.38 c0.677-0.379,1.594-0.371,2.271,0.008c3.343,1.872,13.371,7.459,16.714,9.331c0.27,0.152,0.476,0.335,0.66,0.576L5.304,34.404z" clip-rule="evenodd"/><path fill="#fff" fill-rule="evenodd" d="M24,10c7.727,0,14,6.273,14,14s-6.273,14-14,14 s-14-6.273-14-14S16.273,10,24,10z M24,17c3.863,0,7,3.136,7,7c0,3.863-3.137,7-7,7s-7-3.137-7-7C17,20.136,20.136,17,24,17z" clip-rule="evenodd"/><path fill="#0075c0" fill-rule="evenodd" d="M42.485,13.205c0.516,0.483,0.506,1.211,0.506,1.784 c0,3.795-0.032,14.589,0.009,18.384c0.004,0.396-0.127,0.813-0.323,1.127L23.593,24L42.485,13.205z" clip-rule="evenodd"/><path fill="#fff" fill-rule="evenodd" d="M31 21H33V27H31zM38 21H40V27H38z" clip-rule="evenodd"/><path fill="#fff" fill-rule="evenodd" d="M29 23H35V25H29zM36 23H42V25H36z" clip-rule="evenodd"/></svg>
